X:34
T: WAR EINST EIN JUNG ZIMMER GESELL
N: F0098
O: Europa, Mitteleuropa, Deutschland
R: erzaehlendes Volks - Lied, Ballade
M: 6/8
L: 1/8
K: F
C | F2FAGF | GGGBA
G | DDDFED | A3z2
c | c2BddB | BBAc2
A | AAGAAB | c3d2
c | c2BddB | BBAc2
A | AAGBBE | F3z2

